X:188C
T:Waltz 
O:No 188C William Clarke of Feltwell
M:3/8
L:1/8
K:G
GB|d/g/b/g/d/B/|c2 e|d/B/G/B/c/A/|F2 D| d/g/b/g/d/B/|c2 e| c/A/F/D/F/A/| G:|
|: d| g/d/b/d/g/d/| f/d/a/d/f/d/| a/d/c'/d/a/d/| g/d/b/d/g/d|
b/g/d'/g/b/g/| c'/g/e'/g/c'/g/| f/d/a/d/f/d/| g:||
d/e/d/c/| Bgb| d2B| cac'| cc/d/c/B/|
Afa| d2 f| g(g/b/d'/b/)| g(d/e/d/c/)|B(d/g/)b| d2B|
c (e/a/) c'|e2 c| (B/d/B/d/)g| (A/c/A/c/)f| G/g/f/g/d/B/|G2:|
:G/A/| B B/B/B/c/|dBG|g/a/f/g/e/f/|dBG| A A/A/A/B/|
cBA| e/d/d/B/A/F/| G2:||

